X:1
T:Title
%%score ( 1 2 ) ( 3 4 )
L:1/8
Q:1/4=110
M:4/4
K:Eb
V:1 treble nm="Grand Piano, Soprano"
V:2 treble 
V:3 bass nm="Choir Pad, Balliol College, 76.76"
V:4 bass 
V:1
 E3 [EF] [EG]2 [EB]2 | [EA]2 [Ee]2 [Ge]4 | [EB]2 [EG]>A [EB]2 [EB]2 | [F=B]2 [FB]2 [Ec]4 | %4
 B3 A [EG]2 [EB]2 | [EA]2 [EG]2 [EG]2 [EF]2 | z2 [EF]2 [DF]2 [CA]2 | [EG]2 [DF]2 E4- | E4 z4 |] %9
V:2
 x8 | x8 | x8 | x8 | F4 z4 | x8 | x8 | x8 | x8 |] %9
V:3
 G,3 A, [E,B,]2 [E,_D]2 | [E,C]2 [E,=B,]2 [E,_B,]4 | [E,G,]2 [E,B,]>F, [E,G,]2 [E,G,]2 | %3
w: By~C.~Armand~Miller,~1893 * * *|||
 [D,G,]2 [D,G,]2 [C,G,]4 | [D,B,]4 [E,B,]2 [E,_D]2 | [E,C]2 [E,B,]2 [F,=A,]2 [F,A,]2 | %6
w: |||
 z2 [F,=A,]2 [B,,B,]2 [B,,B,]2 | [B,,B,]2 [B,,A,]2 [E,G,]4- | [E,G,]4 z4 |] %9
w: |||
V:4
 E,4 z4 | x8 | x8 | x8 | x8 | x8 | x8 | x8 | x8 |] %9

